X:54
T:Blue Grass Special
C:Bill Monroe
N:Arranged by Baldassari
R:bluegrass
L:1/8
Q:1/4=185
M:4/4
K:C
"Kick Off"z6 A2 | "A"cB/c/ BA cB/c/ BA | cB/c/ BA E2 AA | cB/c/ BA cB/c/ BA | 
ce cB A^F EF | "D"D^F Ac BA FA | c2 B2 A^F2E | "A"A2 A2 A,^C EE | A2 A2 A2 AA | 
"E"cA Bc AE2E | c2 B2 A^F EF | "A"[A2E2] [A2E2] [AE][A2E2][AE] | [A8E8] | "Second Break"z6 c^c | 
"A"A2 c^c A2 =c^c | A{c}^c A{=c}^c A{=c}^c AA | A2 A2 AA2A | G2 G2 G2 GA | "D"d^f aa aa a2 | 
a/^c'/a ae ^d/e/e c^c | "A"A2 AA E/^D/=D C^C | A2 A2 A2 AD | "E"^Ge2e e2 e2 | 
a^c' ae ^de c/^c/c | "A"A2 AA E/^D/=D {C}^CA | A4 A4 | z8 | "A"A,^C E^F A^c ee | 
ag2[eA] [eA]^c AA | A,^C E^F A^c e2 | a2 ge c{B}c2A | "D"D^F Ac BA FA | cB/c/ BA cB/c/ BA | 
"A"[A2E2] [AE]D A,^C E^F | A2 A2 A2 AA | "E"cA Bc AE2D | c2 B2 A^F EF | "A"[A2E2] [A2E2] [AE][A2E2][AE] | 
[A2E2] [A2E2] [AE][AE] [A2E2] | z8 | "A"[^c'/a/][c'/a/][c'/a/][c'/a/] [c'/a/][c'/a/][c'/a/][c'/a/] [c'/a/][c'/a/][c'/a/][c'/a/] [c'/a/][c'/a/][c'/a/][c'/a/] | 
[^c'/a/][c'/a/][c'/a/][c'/a/] [c'/a/][c'/a/][c'/a/][c'/a/] [c'/a/][c'/a/][c'/a/][c'/a/] [c'/a/][c'/a/][c'/a/][c'/a/] | 
[^c'/a/][c'/a/][c'/a/][c'/a/] [c'/a/][c'/a/][c'/a/][c'/a/] [c'/a/][c'/a/][c'/a/][c'/a/] [c'/a/][c'/a/][c'/a/][c'/a/] | 
[^c'/a/][c'/a/][c'/a/][c'/a/] [e/a/][e/a/][e/a/][e/a/] [e/a/][e/a/][e/a/][e/a/] [e/A/][e/A/][e/A/][e/A/] | 
"D"[^f/d/][f/d/][f/d/][f/d/] [f/d/][f/d/][f/d/][f/d/] [f/d/][f/d/][f/d/][f/d/] [f/d/][f/d/][f/d/][f/d/] | 
[^f/d/][f/d/][f/d/][f/d/] [f/d/][f/d/][f/d/][f/d/] [f/d/][f/d/][f/d/][f/d/] [f/d/][f/d/][f/d/][f/d/] | 
"A"[^c/A/][c/A/][c/A/][c/A/] [c/A/][c/A/][c/A/][c/A/] [cA]E C^C | [^c4A4] cd e2 | 
"E"[^g/e/][g/e/][g/e/][g/e/] [g/e/][g/e/][g/e/][g/e/] [g/e/][g/e/][g/e/][g/e/] [g/e/][g/e/][g/e/][g/e/] | 
[^g2e2] ec ^cA =c^c | "A"A2 AA E/^D/=D C^C | A8 | z8 | A2 A2 A2 AA | "A"cB/c/ BA cB/c/ BA | 
cB/c/ BA ED A,D | cB/c/ BA cB/c/ BA | cB/c/ BA A2 A2 | "D"D^F Ac BA FA | cA Bc A^F ED | 
"A"A,^C E^F A^c e2 | a2 ^ge ec2A | "E"EB2D BD AA | c2 B2 A^F EF | "A"[A2E2] [A2E2] [AE][A2E2][AE] | 
[A8E8] | z8 | "A"A,^C E^F A^c ee | ag2[eA] [eA]^c BA | A,^C E^F A^c e2 | a2 ge cB2A | 
"D"D^F Ac BA FA | cA Bc A^F ED | "A"A,^C E^F A^c ee | a2 ^ge cA2D | "E"DB2D B2 AA | 
[e/c/][e/c/][ec] [e2B2] [e2B2] ^FE | "A"[A2E2] [A2E2] [A/E/][A/E/][AE] [A2E2] | 
[A/E/][A/E/][AE] [A2E2] [A4E4] ||
 
